X:4
T:Gloire  Dieu - AL179
T:(Petite messe)
C:J. Akepsimas
M:4/4
L:1/4
K:F
"Fa"AA "Sib"B2|"Fa"A3/B/ A"Do"G|[1"La"A3/G/ "Rem"FG/A/|"Do4"c2 "Do"c2:|[2"La"A3/G/ "Rem"F"Solm"G/A/|
"Do4/3"G2 "Fa"F2||"Fa"AA/B/ "Lam"cc|"Re"BA "Solm"G2|"Do"GA "Rem"F"Solm"D/F/|"Do"G2-G2||
